X:19
T:Tars of the Victory,The. RH.019
R:Jig
S:Rev.R.Harrison’s MS,c1815,Cumbria
N:Nelson was given command in the Mediteranean in 1803, and his
N:flagship was the Victory, in which he died in 1805 at the
N:Battle of Trafalgar..CGP
O:England
A:Temple Sowerby,Cumbria
Z:vmp.Simon Wilson. Review PJH, 2008.
M:6/8
L:1/8
Q:3/8=120
K:D
b|a^ga aga|d’2d d2f|efg ABc|dfa a2a|\
a^ga aga|d’2d def|efg ABc|d2f d2:|!
|:d’|c’ba a2e|fga d2f|efg ABc|dfa a2d’|\
c’ba a2g|fga def|efg ABc|dfa d2:|

